polaris-icons/icons/newicons/AppsMajor.svg

<svg width="20" height="20" viewBox="0 0 20 20" fill="none" xmlns="http://www.w3.org/2000/svg">
<path d="M14 2.75C14.4142 2.75 14.75 3.08579 14.75 3.5V5.25H16.5C16.9142 5.25 17.25 5.58579 17.25 6C17.25 6.41421 16.9142 6.75 16.5 6.75H14.75V8.5C14.75 8.91421 14.4142 9.25 14 9.25C13.5858 9.25 13.25 8.91421 13.25 8.5V6.75H11.5C11.0858 6.75 10.75 6.41421 10.75 6C10.75 5.58579 11.0858 5.25 11.5 5.25H13.25V3.5C13.25 3.08579 13.5858 2.75 14 2.75Z" fill="black"/>
<path fill-rule="evenodd" clip-rule="evenodd" d="M3 5.25C3 4.00736 4.00736 3 5.25 3H7.25C8.49264 3 9.5 4.00736 9.5 5.25V7.25C9.5 8.49264 8.49264 9.5 7.25 9.5H5.25C4.00736 9.5 3 8.49264 3 7.25V5.25ZM5.25 4.5C4.83579 4.5 4.5 4.83579 4.5 5.25V7.25C4.5 7.66421 4.83579 8 5.25 8H7.25C7.66421 8 8 7.66421 8 7.25V5.25C8 4.83579 7.66421 4.5 7.25 4.5H5.25Z" fill="black"/>
<path fill-rule="evenodd" clip-rule="evenodd" d="M3 12.75C3 11.5074 4.00736 10.5 5.25 10.5H7.25C8.49264 10.5 9.5 11.5074 9.5 12.75V14.75C9.5 15.9926 8.49264 17 7.25 17H5.25C4.00736 17 3 15.9926 3 14.75V12.75ZM5.25 12C4.83579 12 4.5 12.3358 4.5 12.75V14.75C4.5 15.1642 4.83579 15.5 5.25 15.5H7.25C7.66421 15.5 8 15.1642 8 14.75V12.75C8 12.3358 7.66421 12 7.25 12H5.25Z" fill="black"/>
<path fill-rule="evenodd" clip-rule="evenodd" d="M12.75 10.5C11.5074 10.5 10.5 11.5074 10.5 12.75V14.75C10.5 15.9926 11.5074 17 12.75 17H14.75C15.9926 17 17 15.9926 17 14.75V12.75C17 11.5074 15.9926 10.5 14.75 10.5H12.75ZM12 12.75C12 12.3358 12.3358 12 12.75 12H14.75C15.1642 12 15.5 12.3358 15.5 12.75V14.75C15.5 15.1642 15.1642 15.5 14.75 15.5H12.75C12.3358 15.5 12 15.1642 12 14.75V12.75Z" fill="black"/>
</svg>

<svg width="20" height="20" viewBox="0 0 20 20" fill="none" xmlns="http://www.w3.org/2000/svg"><path d="M14 2.75a.75.75 0 0 1 .75.75v1.75h1.75a.75.75 0 0 1 0 1.5h-1.75v1.75a.75.75 0 0 1-1.5 0v-1.75h-1.75a.75.75 0 0 1 0-1.5h1.75v-1.75a.75.75 0 0 1 .75-.75Z" fill="#000"/><path fill-rule="evenodd" clip-rule="evenodd" d="M3 5.25a2.25 2.25 0 0 1 2.25-2.25h2a2.25 2.25 0 0 1 2.25 2.25v2a2.25 2.25 0 0 1-2.25 2.25h-2a2.25 2.25 0 0 1-2.25-2.25v-2Zm2.25-.75a.75.75 0 0 0-.75.75v2c0 .414.336.75.75.75h2a.75.75 0 0 0 .75-.75v-2a.75.75 0 0 0-.75-.75h-2Z" fill="#000"/><path fill-rule="evenodd" clip-rule="evenodd" d="M3 12.75a2.25 2.25 0 0 1 2.25-2.25h2a2.25 2.25 0 0 1 2.25 2.25v2a2.25 2.25 0 0 1-2.25 2.25h-2a2.25 2.25 0 0 1-2.25-2.25v-2Zm2.25-.75a.75.75 0 0 0-.75.75v2c0 .414.336.75.75.75h2a.75.75 0 0 0 .75-.75v-2a.75.75 0 0 0-.75-.75h-2Z" fill="#000"/><path fill-rule="evenodd" clip-rule="evenodd" d="M12.75 10.5a2.25 2.25 0 0 0-2.25 2.25v2a2.25 2.25 0 0 0 2.25 2.25h2a2.25 2.25 0 0 0 2.25-2.25v-2a2.25 2.25 0 0 0-2.25-2.25h-2Zm-.75 2.25a.75.75 0 0 1 .75-.75h2a.75.75 0 0 1 .75.75v2a.75.75 0 0 1-.75.75h-2a.75.75 0 0 1-.75-.75v-2Z" fill="#000"/></svg>
